X: 7966
T:Tune fr Guadeloupe \#II
O:Guadeloupe
R:Reel
M:C
L:1/8
K:C
CCE|\
GAGE CEGE | A3G- GECE | GAGE CEGA | G3 F- FFDF |\
B3B- BFDF | B3B- BFDF \
|1 BcBA GAGF | E2FG- G :|2 BA-AG FE-ED|C4- C|:\
CEG|\
cc-cc BzBz | A3A- AB,DF | BB-BB AzAz | G3G- GCEG |\
AA-AA GzGz | F3F- FDEF  | G2GA GFED |1 E3 C- C:|2 C4- C|]
